!!!OTL: Alter Sommerwendfest - Tanz
!!!ARE: Europa, Mitteleuropa, Deutschland
!!!SCT: A0310B
!!!YEM: Copyright 1995, estate of Helmut Schaffrath.
**kern
*ICvox
*Ivox
*M4/2
*k[b-e-]
*g:
=1
{2.g
4g
2g
2g
=2
2.b-
4b-
2b-}
{2b-
=3
2.g
4g
2a
2g
=4
1f#
1g
=5
2r}
{2g
2.a
4b-
=6
2cc
2cc
2.b-
4a
=7
2b-}
{2b-
2fn
2fn
=8
2b-
2b-
2a
2a
=9
2.b-}
{4b-
2a
2g
=10
2a
2g
1f#
=11
0g}
==
!!!AGN: Romanze, Ballade, Lied
!! Souterliedekens 1540 ad Ps. 125
!!!ONB: ESAC (Essen Associative Code) Database: ALTDEU
!!!AMT: simple quadruple
!!!AIN: vox
!!!EED: Helmut Schaffrath
!!!EEV: 1.0
*-
